svgs/regular/panel-fire.svg

<svg xmlns="http://www.w3.org/2000/svg" viewBox="0 0 640 512"><!--! Font Awesome Pro 6.3.0 by @fontawesome - https://fontawesome.com License - https://fontawesome.com/license (Commercial License) Copyright 2023 Fonticons, Inc. --><path d="M384 80H64c-8.8 0-16 7.2-16 16V416c0 8.8 7.2 16 16 16H306.1c8.1 17.5 18.8 33.7 31.5 48H64c-35.3 0-64-28.7-64-64V96C0 60.7 28.7 32 64 32H384c35.3 0 64 28.7 64 64v32.2c-12.6-1.2-25.5 2.7-35.5 11.7c-4.2 3.8-8.4 7.6-12.5 11.5V96c0-8.8-7.2-16-16-16zM293.8 311.3c-1.8 .5-3.8 .7-5.8 .7c-13.3 0-24-10.7-24-24s10.7-24 24-24c8.2 0 15.5 4.1 19.8 10.4c-5.8 12.1-10.6 24.5-14 36.9zM96 160c0-17.7 14.3-32 32-32H320c17.7 0 32 14.3 32 32v32c0 17.7-14.3 32-32 32H128c-17.7 0-32-14.3-32-32V160zm32 104a24 24 0 1 1 0 48 24 24 0 1 1 0-48zm56 24a24 24 0 1 1 48 0 24 24 0 1 1 -48 0zM453.5 163.6c19.7 17.8 38.2 37 55.5 57.7c7.9-9.9 16.8-20.7 26.5-29.5c5.6-5.1 14.4-5.1 20 0c24.7 22.7 45.6 52.7 60.4 81.1c14.5 28 24.2 58.8 24.2 79c0 87.8-71.3 159.8-160 159.8c-89.7 0-160-72.1-160-159.8c0-26.4 12.7-60.7 32.4-92.6c20-32.4 48.1-66.1 81.4-95.8c2.8-2.5 6.4-3.8 10-3.7c3.5 0 7 1.3 9.8 3.8zM530 432.9c30-21 38-63 20-96c-2-4-4-8-7-12l-36 42s-58-74-62-79c-30 37-45 58-45 82c0 49 36 78 81 78c18 0 34-5 49-15z"/></svg>

<svg xmlns="http://www.w3.org/2000/svg" viewBox="0 0 640 512"><!--! Font Awesome Pro 6.2.0 by @fontawesome - https://fontawesome.com License - https://fontawesome.com/license (Commercial License) Copyright 2022 Fonticons, Inc. --><path d="M384 80H64C55.16 80 48 87.16 48 96V416C48 424.8 55.16 432 64 432H306.1C314.2 449.5 324.8 465.7 337.6 480H64C28.65 480 0 451.3 0 416V96C0 60.65 28.65 32 64 32H384C419.3 32 448 60.65 448 96V128.2C435.4 127 422.5 130.9 412.5 139.9C408.2 143.6 404.1 147.5 400 151.4V96C400 87.16 392.8 80 384 80zM288 312C274.7 312 264 301.3 264 288C264 274.7 274.7 264 288 264C296.2 264 303.5 268.1 307.8 274.4C302 286.6 297.2 298.1 293.8 311.3C291.9 311.8 289.1 312 288 312zM96 160C96 142.3 110.3 128 128 128H320C337.7 128 352 142.3 352 160V192C352 209.7 337.7 224 320 224H128C110.3 224 96 209.7 96 192V160zM104 288C104 274.7 114.7 264 128 264C141.3 264 152 274.7 152 288C152 301.3 141.3 312 128 312C114.7 312 104 301.3 104 288zM232 288C232 301.3 221.3 312 208 312C194.7 312 184 301.3 184 288C184 274.7 194.7 264 208 264C221.3 264 232 274.7 232 288zM509 221.3C516.9 211.5 525.8 200.6 535.5 191.8C541.1 186.7 549.9 186.7 555.5 191.9C580.2 214.6 601.1 244.5 615.8 273C630.4 301.1 640 329.8 640 349.9C640 437.8 568.7 511.9 480 511.9C390.3 511.9 320 437.7 320 349.9C320 323.5 332.7 291.3 352.4 259.4C372.4 227 400.5 193.3 433.8 163.6C439.4 158.6 447.1 158.6 453.5 163.6C473.3 181.4 491.8 200.6 509 221.3V221.3zM550 336.9C548 332.9 546 328.9 543 324.9L507 366.9C507 366.9 448.1 292.9 444.1 287.9C415 324.9 400 345.9 400 369.9C400 418.9 436 447.9 480.1 447.9C499 447.9 515 442.9 530 432.9C560 411.9 568 369.9 550 336.9z"/></svg>
